Numix/16/status/indicator-keyboard-Hr-3.svg

<?xml version="1.0" encoding="UTF-8" standalone="no"?>
<svg
   xmlns:dc="http://purl.org/dc/elements/1.1/"
   xmlns:cc="http://creativecommons.org/ns#"
   xmlns:rdf="http://www.w3.org/1999/02/22-rdf-syntax-ns#"
   xmlns:svg="http://www.w3.org/2000/svg"
   xmlns="http://www.w3.org/2000/svg"
   xmlns:sodipodi="http://sodipodi.sourceforge.net/DTD/sodipodi-0.dtd"
   xmlns:inkscape="http://www.inkscape.org/namespaces/inkscape"
   viewBox="0 0 16 16"
   id="svg2"
   version="1.1"
   inkscape:version="0.91 r13725"
   sodipodi:docname="indicator-keyboard-Hr-3.svg">
  <metadata
     id="metadata14">
    <rdf:RDF>
      <cc:Work
         rdf:about="">
        <dc:format>image/svg+xml</dc:format>
        <dc:type
           rdf:resource="http://purl.org/dc/dcmitype/StillImage" />
      </cc:Work>
    </rdf:RDF>
  </metadata>
  <defs
     id="defs12" />
  <sodipodi:namedview
     pagecolor="#ffffff"
     bordercolor="#666666"
     borderopacity="1"
     objecttolerance="10"
     gridtolerance="10"
     guidetolerance="10"
     inkscape:pageopacity="0"
     inkscape:pageshadow="2"
     inkscape:window-width="459"
     inkscape:window-height="369"
     id="namedview10"
     showgrid="false"
     inkscape:zoom="14.75"
     inkscape:cx="8"
     inkscape:cy="8"
     inkscape:window-x="65"
     inkscape:window-y="24"
     inkscape:window-maximized="0"
     inkscape:current-layer="svg2" />
  <path
     style="fill:#ececec;fill-opacity:1"
     d="M 1.5996094 0 C 0.71320937 2.9605947e-16 0 0.71320937 0 1.5996094 L 0 14.400391 C 2.9605947e-16 15.286791 0.71320937 16 1.5996094 16 L 14.400391 16 C 15.286791 16 16 15.286791 16 14.400391 L 16 1.5996094 C 16 0.71320937 15.286791 0 14.400391 0 L 1.5996094 0 z M 2.2050781 4.859375 L 2.8164062 4.859375 L 2.8164062 7.5683594 L 6.2011719 7.5683594 L 6.2011719 4.859375 L 6.8125 4.859375 L 6.8125 11.095703 L 6.2011719 11.095703 L 6.2011719 8.0996094 L 2.8164062 8.0996094 L 2.8164062 11.095703 L 2.2050781 11.095703 L 2.2050781 4.859375 z M 9.9765625 6.3535156 C 10.168562 6.3535156 10.347625 6.3684375 10.515625 6.3984375 C 10.689625 6.4284375 10.809 6.4582812 10.875 6.4882812 L 10.757812 6.9921875 C 10.709813 6.9681875 10.610937 6.9439219 10.460938 6.9199219 C 10.316937 6.8899219 10.126718 6.875 9.8867188 6.875 C 9.6347187 6.875 9.4294375 6.8936875 9.2734375 6.9296875 C 9.1234375 6.9656875 9.0245625 6.9955312 8.9765625 7.0195312 L 8.9765625 11.095703 L 8.3925781 11.095703 L 8.3925781 6.6582031 C 8.5425781 6.5922031 8.7496719 6.5269375 9.0136719 6.4609375 C 9.2776719 6.3889375 9.5985625 6.3535156 9.9765625 6.3535156 z M 12.425781 8.7539062 C 12.628581 8.7539062 12.802966 8.7793781 12.947266 8.8300781 C 13.095466 8.8807781 13.216953 8.953275 13.314453 9.046875 C 13.411953 9.136575 13.48445 9.2463 13.53125 9.375 C 13.57805 9.4997999 13.601563 9.6350031 13.601562 9.7832031 C 13.601562 10.021103 13.536903 10.217041 13.408203 10.369141 C 13.283403 10.517341 13.122728 10.625106 12.923828 10.691406 C 13.033028 10.718706 13.136881 10.759859 13.238281 10.818359 C 13.343581 10.872959 13.437631 10.945456 13.519531 11.035156 C 13.601431 11.120956 13.66805 11.226762 13.71875 11.351562 C 13.76945 11.476363 13.794922 11.623316 13.794922 11.791016 C 13.794922 11.962616 13.763572 12.119372 13.701172 12.263672 C 13.642672 12.407972 13.552541 12.535331 13.431641 12.644531 C 13.314641 12.749831 13.165722 12.834084 12.982422 12.896484 C 12.799122 12.954984 12.583591 12.984375 12.337891 12.984375 C 12.209191 12.984375 12.089669 12.974578 11.980469 12.955078 C 11.875169 12.939478 11.783072 12.919884 11.701172 12.896484 C 11.619272 12.873084 11.548734 12.849572 11.490234 12.826172 C 11.435634 12.802772 11.394487 12.783178 11.367188 12.767578 L 11.466797 12.427734 C 11.490197 12.443334 11.529384 12.462928 11.583984 12.486328 C 11.638584 12.509728 11.703244 12.533241 11.777344 12.556641 C 11.855344 12.576141 11.939603 12.593775 12.033203 12.609375 C 12.130703 12.624975 12.236509 12.632813 12.349609 12.632812 C 12.720109 12.632812 12.986584 12.556397 13.146484 12.404297 C 13.306384 12.248297 13.384766 12.040597 13.384766 11.779297 C 13.384766 11.607697 13.351456 11.464662 13.285156 11.351562 C 13.222756 11.238462 13.136538 11.148331 13.023438 11.082031 C 12.914238 11.011831 12.784919 10.962847 12.636719 10.935547 C 12.492419 10.904347 12.337628 10.888672 12.173828 10.888672 L 12.115234 10.888672 L 12.115234 10.574219 L 12.25 10.574219 C 12.3553 10.574219 12.463066 10.564422 12.572266 10.544922 C 12.685366 10.521522 12.787253 10.480375 12.876953 10.421875 C 12.970553 10.363375 13.046969 10.285 13.105469 10.1875 C 13.167869 10.09 13.197266 9.9646001 13.197266 9.8125 C 13.197266 9.6838 13.177666 9.5760281 13.134766 9.4863281 C 13.091866 9.3927281 13.033084 9.3182719 12.958984 9.2636719 C 12.888784 9.2090719 12.804531 9.1698844 12.707031 9.1464844 C 12.613431 9.1191844 12.513503 9.1054687 12.408203 9.1054688 C 12.197603 9.1054688 12.034969 9.1348594 11.917969 9.1933594 C 11.800969 9.2518594 11.704959 9.3067219 11.630859 9.3574219 L 11.466797 9.0585938 C 11.505797 9.0312937 11.554781 8.9999437 11.613281 8.9648438 C 11.675681 8.9297437 11.748178 8.8964344 11.830078 8.8652344 C 11.911978 8.8340344 12.000156 8.8085625 12.097656 8.7890625 C 12.199056 8.7656625 12.308781 8.7539062 12.425781 8.7539062 z "
     id="path4" />
</svg>

<svg xmlns="http://www.w3.org/2000/svg" viewBox="0 0 16 16">
 <path d="m 1.6 0 c -0.886 0 -1.6 0.713 -1.6 1.6 l 0 12.801 c 0 0.886 0.713 1.6 1.6 1.6 l 12.801 0 c 0.886 0 1.6 -0.713 1.6 -1.6 l 0 -12.801 c 0 -0.886 -0.713 -1.6 -1.6 -1.6 l -12.801 0 z m 0.605 4.859 l 0.611 0 l 0 2.709 l 3.385 0 l 0 -2.709 l 0.611 0 l 0 6.236 l -0.611 0 l 0 -2.996 l -3.385 0 l 0 2.996 l -0.611 0 l 0 -6.236 z m 7.771 1.494 c 0.192 0 0.371 0.015 0.539 0.045 c 0.174 0.03 0.293 0.06 0.359 0.09 l -0.117 0.504 c -0.048 -0.024 -0.147 -0.048 -0.297 -0.072 c -0.144 -0.03 -0.334 -0.045 -0.574 -0.045 c -0.252 0 -0.457 0.019 -0.613 0.055 c -0.15 0.036 -0.249 0.066 -0.297 0.09 l 0 4.076 l -0.584 0 l 0 -4.437 c 0.15 -0.066 0.357 -0.131 0.621 -0.197 c 0.264 -0.072 0.585 -0.107 0.963 -0.107 z m 2.449 2.4 c 0.203 0 0.377 0.025 0.521 0.076 c 0.148 0.051 0.27 0.123 0.367 0.217 c 0.098 0.09 0.17 0.199 0.217 0.328 c 0.047 0.125 0.07 0.26 0.07 0.408 c 0 0.238 -0.065 0.434 -0.193 0.586 c -0.125 0.148 -0.285 0.256 -0.484 0.322 c 0.109 0.027 0.213 0.068 0.314 0.127 c 0.105 0.055 0.199 0.127 0.281 0.217 c 0.082 0.086 0.149 0.192 0.199 0.316 c 0.051 0.125 0.076 0.272 0.076 0.439 c 0 0.172 -0.031 0.328 -0.094 0.473 c -0.059 0.144 -0.149 0.272 -0.27 0.381 c -0.117 0.105 -0.266 0.19 -0.449 0.252 c -0.183 0.059 -0.399 0.088 -0.645 0.088 c -0.129 0 -0.248 -0.01 -0.357 -0.029 c -0.105 -0.016 -0.197 -0.035 -0.279 -0.059 c -0.082 -0.023 -0.152 -0.047 -0.211 -0.07 c -0.055 -0.023 -0.096 -0.043 -0.123 -0.059 l 0.1 -0.34 c 0.023 0.016 0.063 0.035 0.117 0.059 c 0.055 0.023 0.119 0.047 0.193 0.07 c 0.078 0.019 0.162 0.037 0.256 0.053 c 0.098 0.016 0.203 0.023 0.316 0.023 c 0.371 0 0.637 -0.076 0.797 -0.229 c 0.16 -0.156 0.238 -0.364 0.238 -0.625 c 0 -0.172 -0.033 -0.315 -0.1 -0.428 c -0.062 -0.113 -0.149 -0.203 -0.262 -0.27 c -0.109 -0.07 -0.239 -0.119 -0.387 -0.146 c -0.144 -0.031 -0.299 -0.047 -0.463 -0.047 l -0.059 0 l 0 -0.314 l 0.135 0 c 0.105 0 0.213 -0.01 0.322 -0.029 c 0.113 -0.023 0.215 -0.065 0.305 -0.123 c 0.094 -0.059 0.17 -0.137 0.229 -0.234 c 0.062 -0.098 0.092 -0.223 0.092 -0.375 c 0 -0.129 -0.02 -0.236 -0.063 -0.326 c -0.043 -0.094 -0.102 -0.168 -0.176 -0.223 c -0.07 -0.055 -0.154 -0.094 -0.252 -0.117 c -0.094 -0.027 -0.194 -0.041 -0.299 -0.041 c -0.211 0 -0.373 0.029 -0.49 0.088 c -0.117 0.059 -0.213 0.113 -0.287 0.164 l -0.164 -0.299 c 0.039 -0.027 0.088 -0.059 0.146 -0.094 c 0.062 -0.035 0.135 -0.068 0.217 -0.1 c 0.082 -0.031 0.17 -0.057 0.268 -0.076 c 0.101 -0.023 0.211 -0.035 0.328 -0.035 z" style="fill:#ececec;fill-opacity:1"/>
</svg>
